X:685
T:Bourre les Garons de la Montagne
M:3/8
O:France
R:Bourre
Z:Richard Robinson 
%%TUNEURL: http://www.leeds.ac.uk/music/Info/RRTuneBk/gettune/00000b49.html
%%ID:00000b49
K:C
g3ag2| f2deg2| d2c2d2| e2d4|\
g3ag2| f2def2| d2c2B2| c6:|
|: G2c2d2| e2def2| d2c2d2| e2d4|\
G2c2d2| e2def2| d2c2B2| c6:|
